www/assets/icons/sync_problem.svg

<svg xmlns="http://www.w3.org/2000/svg" width="24" height="24" viewBox="0 0 24 24" fill='currentColor'><path d="M3 12c0 2.21.91 4.2 2.36 5.64L3 20h6v-6l-2.24 2.24A6 6 0 0 1 5 12a5.99 5.99 0 0 1 4-5.65V4.26C5.55 5.15 3 8.27 3 12m8 5h2v-2h-2zM21 4h-6v6l2.24-2.24A6 6 0 0 1 19 12a5.99 5.99 0 0 1-4 5.65v2.09c3.45-.89 6-4.01 6-7.74 0-2.21-.91-4.2-2.36-5.64zm-10 9h2V7h-2z"/></svg>

<svg width="24" height="24" viewBox="0 0 24 24" xmlns="http://www.w3.org/2000/svg" fill='currentColor'><path d="M3 12C3 14.21 3.91 16.2 5.36 17.64L3 20H9V14L6.76 16.24C5.68 15.15 5 13.66 5 12C5 9.39 6.67 7.17 9 6.35V4.26C5.55 5.15 3 8.27 3 12ZM11 17H13V15H11V17ZM21 4H15V10L17.24 7.76C18.32 8.85 19 10.34 19 12C19 14.61 17.33 16.83 15 17.65V19.74C18.45 18.85 21 15.73 21 12C21 9.79 20.09 7.8 18.64 6.36L21 4ZM11 13H13V7H11V13Z"/></svg>
